X: 1
T: Londubh
T: Blackbird, The
S: Mick O'Brien and Caoimhin O'Raghallaigh, Kitty Lie Over
N: Recorded in Bb; transposed here to D "as played"
M: 4/4
L: 1/8
K:D
B3d  A2   A/B/c | d2   AG   (3FGF DE | FGAF GBAG |  (3FGF D2 DFGA     |
~B2dB A2   Bc    | d2   AG   (3FGF D2 | FGAF GBAG |  (3FGF D2 DEFG    ||
Addc dfeg       | fded =cAGB          | Addc dfag |  (3fgf d2 d2   fe  |
dcAF G2   A/B/c | d2   AG   (3FGF D2 | FGAF GBAG |1 (3FGF D2 DEFG    :|2 (3FGF D2 DFGA ||